dist/images/icons/icon-message.svg

<svg width="26" height="16" viewBox="0 0 26 16" fill="none" xmlns="http://www.w3.org/2000/svg">
<path d="M2.4375 0.5C1.0918 0.5 0 1.33984 0 2.375C0 2.96484 0.360547 3.51953 0.975 3.875L12.025 10.25C12.6039 10.582 13.3961 10.582 13.975 10.25L25.025 3.875C25.6395 3.51953 26 2.96484 26 2.375C26 1.33984 24.9082 0.5 23.5625 0.5H2.4375ZM0 4.875V13C0 14.3789 1.45742 15.5 3.25 15.5H22.75C24.5426 15.5 26 14.3789 26 13V4.875L14.95 11.25C14.3878 11.5752 13.7034 11.751 13 11.751C12.2966 11.751 11.6122 11.5752 11.05 11.25L0 4.875Z" fill="white"/>
</svg>

<svg width="26" height="16" fill="none" xmlns="http://www.w3.org/2000/svg"><path d="M2.438.5C1.091.5 0 1.34 0 2.375c0 .59.36 1.145.975 1.5l11.05 6.375a2.033 2.033 0 001.95 0l11.05-6.375c.615-.355.975-.91.975-1.5C26 1.34 24.908.5 23.562.5H2.438zM0 4.875V13c0 1.379 1.457 2.5 3.25 2.5h19.5c1.793 0 3.25-1.121 3.25-2.5V4.875L14.95 11.25a3.923 3.923 0 01-1.95.501 3.923 3.923 0 01-1.95-.501L0 4.875z" fill="#fff"/></svg>
